X:11
T:11 Inflammatus et accentus
T:à due
M:C
L:1/8
%%staves s | a | {1 2 3}
Q:"Allegro"
K:Bb
% (51)
V:s name=Sopran dyn=up
z8|z8|z8|
V:a name=Alt dyn=up
z8|z8|z8|
V:1 name="Str.\nBc."
ff2e [Fd][Fd]2[Ec]|TB/A/B Tc/B/c d/c/Bz2|ff2e [Fd][Fd]2[Ec]|
V:2
x8|DB2A BG F/E/D/C/|!dolce!x8|
V:3
B,,2B,,2B,,2B,,2|B,,B,E,F, B,,G, F,/E,/D,/C,/|[B,,B,]2B,,2B,,2B,,2|
V:s		% M4
z8|z8|z8|
V:a
z8|z8|z8|
V:1
TB/A/B Tc/B/c d/c/B zf|gb2a bB zf|gb2a bBe2|
V:2
DB2AB2!forte!B,2|gfe2dEF!dolce!d|gfe2dB2!forte!A|
V:3
B,,B,E,F, B,,C,D,B,,|E,D,C,F, B,,C,D,B,,|E,D,C,F,B,2G,A,|
V:s		% M7
z8|z8|z8|
V:a
z8|z8|z8|
V:1
dc/B/Tc2x4|cdTe2d2fB|cdTe2db/a/ bb|
V:2
F2BAB2!dolcea!fB|x8|x4!fortea!x4|
V:3
B,D,E,F, B,,B,,D,D,|E,F,G,A, B,B,D,D,|E,F,G,A, B,FDC|
% (52)
V:s		% M10
z8|z8|z8|
V:a
z8|z8|z8|
V:1
Bb/a/ bb Bb/a/ bb|Ge d/B/c/A/ Bb/a/ bb|Bb/a/ bb Bb/a/ bb|
V:2
x8|x4x!dolce!x3|x8|
V:3
B,DB,A, G,B,G,F,|E,E,F,F, B,,F,D,C,|B,,D,B,,A,, G,,B,,G,,F,,|
V:s		% M13
z8|f(f2e) d(d2c)|TB2Tc2d/c/ Bz2|
w:In-flam -ma-tus_ et ac-cen -sus
V:a
z8|z8|z8|
V:1
Ge (d/B/)(c/A/) BFB,2|ff2e [Fd][Fd]2[Ec]|TB2Tc2d/c/Bz2|
V:2
x!forte!x3x4|x8|DB2A BG F/E/D/C/|
V:3
E,,E,,F,,F,,B,,2z2|B,,2B,,2B,,2B,,2|B,,B,E,F, B,,G, F,/E,/D,/C,/|
V:s		% M16
f(f2e) d(d2c)|TB2Tc2d/c/ B zf|(c2TB2)A2zf|
w:per te,_ vir-go,_ sim de-fen -sus in di -e ju-
V:a
z8|z8|z8|
V:1
ff2e [Fd][Fd]2[Ec]|TB2Tc2d/c/Bz2|zf2=ex4|
V:2
x8|DB2A BB, B,d|c2B2[Af]F/=E/ F[Fd]|
V:3
[B,,B,]2B,,2B,,2B,,2|B,,B,E,F, B,,C,D,B,|A,F,G,C, F,G,A,B,|
% (53)
V:s		% M19
c2TB2A2!dolce!c F|(GATB2)A2!cresc!c F|(GATB2)A2!forte!c F|
w:di-ci-i. In-flam-ma --tus et ac-cen --sus per-te,
V:a
z8|z8|z8|
V:1
zf2=ex4|gaTb2a2c'f|gaTb2a2c'f|
V:2
c2B2[Af]2!dolce!c'f|x4x3!cresc!x|x8|
V:3
A,F,G,C, F,G,A,A,,|B,,C,D,=E, F,G,A,A,,|B,,C,D,=E, F,G,A,A,,|
V:s		% M22
(GATB2)A2c F|(GATB2)A2zc|Tf8-|
w:vir --go, sim de-fen --sus in di-
V:a
z8|z8|z8|
V:1
gaTb2a2c'f|gaTb2a2z2|Ff/=e/ ff Ff/e/ ff|
V:2
x8|x8|x8|
V:3
B,,C,D,=E, F,G,A,A,,|B,,C,D,=E, F,F,,F,,2|F,CA,G, F,A,F,=E,|
V:s		% M25
f4-f=e/d/ c/B/ A/G/|F2TG2F2z2|z8|
w:----e_ ju -di-ci-i.
V:a
z8|z8|z8|
V:1
Ff/=e/ ff fe/d/ c/B/A/G/|F2TG2Af/=e/ ff|=Bf/_e/ fB cg/f/ gg|
V:2
x8|x4x!forte!x3|x8|
V:3
D,F,D,C, B,,B,,A,,B,,|C,C,C,C, F,F,F,F,|=B,,B,,B,,B,, C,C,C,C,|
% (54)
V:s		% M28
z8|z8|z8|
V:a
z8|z8|c(c2B) A(A2G)|
w:Fac me_ cru-ce_
V:1
_Bg/f/ gB Af/=e/ fF|FB{F}=E2FCA,2|cc2B [CA][CA]2[B,G]|
V:2
x8|x8|x8|
V:3
B,,B,,B,,B,, A,,A,,A,,A,,|B,,B,,C,C,F,,2z2|F,,2F,,2F,,2F,,2|
V:s		% M31
z8|f(f2e) d (d2c)|TB2Tc2d/c/ Bz2|
w:Mor-te_ Chri-sto_ prae-mu-ni -ri,
V:a
TF2TG2A/G/ Fz2|z8|z8|
w:cu-sto-di -ri
V:1
TF2TG2A/G/Fz2|ff2e [Fd][Fd]2[Ec]|TB2Tc2d/c/Bz2|
V:2
A,F2=EF2F/=E/D/C/|x8|DB2A BB, B,B,|
V:3
F,,F,B,,C, F,,G, F,/_E,/D,/C,/|[B,,B,]2B,,2B,,2B,,2|B,,B,E,F, B,,C,D,C,|
V:s		% M34
F G_A2G2z2|G =AB2A2z2|z8|
w:con-fo-ve-ri, con-fo-ve-ri.
V:a
D E F2E2z2|=E F G2F2z2|F2F2F4-|
w:con-fo-ve-ri, con-fo-ve-ri, con-fo-ve-
V:1
[df][eg]T[f_a]2[eg][EG]/[DF]/ [EG][EG]|[=eg][f=a]T[gb]2[fa][FA]/[=EG]/ [FA][FA]|z4z2f/d/c/B/|
V:2
x8|x8|x4!dolce!F4-|
V:3
B,,B,,B,,B,, E,F,E,D,|C,C,C,C, F,G,A,G,|F,2z2B,,C,D,D,|
% (55)
V:s		% M37
!dolce!c dTe2d2z2!cresc!|c dTe2d2z2|!forte!c dTe2d2z2|
w:Fac me cru-ce cu-sto-di-ri mor-te Cgri-sti
V:a
F8-|F8-|F8-|
w:---
V:1
cdTe2d2f/d/c/B/|cdTe2d2f/d/c/B/|cdTe2d2f/d/c/B/|
V:2
F8-|F8-|F8-|
V:3
E,F,G,A, B,CDD,|E,F,G,A, B,CDD,|E,F,G,A, B,CDD,|
V:s		% M40
c dTe2d2z2|!dolce!_A4G4|=A4B4|
w:prae-mu-ni-ri, con-fo-ve-ri,
V:a
F4F2z2|D4E4|C4D4|
w:-ri, con-fo-ve-ri,
V:1
cdTe2x4|([D_A]4[EG]4|[C=A]4[DB]4)|
V:2
F4-[Fd][db]/[ca]/ [db][db]|!dolce!x8|x8|
V:3
E,F,G,A, B,B,,B,,B,,|B,,B,,B,,B,, B,,B,,B,,B,,|B,,B,,B,,B,, B,,B,,B,,B,,|
V:s		% M43
!forte!c2c2(Bc/d/ e) d/c/|(B2=A3/) A/B2z2|!dolce!_A4G4|=A4B4|
w:con-fo-ve ---ri_ gra -ti-a, con-fo-ve-ri,
V:a
!forte!E2E2(DE/F/ G) F/E/|(D2C3/) C/D2z2|!dolce!D4E4|C4D4|
w:con-fo-ve ---ri_ gra -ti-a, con-fo-ve-ri,
V:1
[CE][ce]/[Bd]/ [ce][ce] [Bd][ce]/[df]/ [eg][df]/[ce]/|dbc2[Bd][db]/[ca]/ [db][db]|([D_A]4[EG]4|[C=A]4[DB]4)|
V:2
!forte!x8|B2A2x4|!dolce!x8|x8|
V:3
zF,,G,,A,, B,,B,E,E,|F,F,F,F, B,,B,,B,,B,,|B,,B,,B,,B,, B,,B,,B,,B,,|B,,B,,B,,B,, B,,B,,B,,B,,|
% (56)
V:s		% M47
!forte!c2c2(Bc/d/ e) d/c/|(B2=A3/) A/B2z2|z8|
w:con-fo-ve ---ri_ gra -ti-a.
V:a
!forte!E2E2(DE/F/ G) F/E/|(D2C3/) C/B,2z2|z8|
w:con-fo-ve ---ri_ gra -ti-a.
V:1
[CE][ce]/[Bd]/ [ce][ce] [Bd][ce]/[df]/ [eg][df]/[ce]/|db ca Bb/a/ bb|Bb/a/ bb Bb/a/ bb|
V:2
!forte!x8|x4x!fortea!x3|x8|
V:3
zF,,G,,A,, B,,B,E,E,|F,F,F,F, B,,F,D,C,|B,,D,B,,A,, G,,B,,G,,F,,|
V:s		% M50
z8|z8|Hz8|]
V:a
z8|z8|Hz8|]
V:1
Ge d/B/c/A/ Bb/a/ bb|Bb/a/ bb Bb/a/ bb|Ge d/B/c/A/ BFHB,2|]
V:2
x4x!dolce!x3|x8|x!forte!x3x4|
V:3
E,,E,,F,,F,, B,,F,D,C,|B,,D,B,,A,, G,,B,,G,,F,,|E,,E,,F,,F,, B,,2Hz2|]

